X: 16815
T: Harry's
R: jig
M: 6/8
K: Dmajor
|:FDF dcd|BAG A2 G|FAe dcd|ecA GFE|
DFA ded|BAG A2 G|FAd gfe|1 dce dAG:|2 dce dag||
|:fef fdf|gfg c2 e|g3 gfe|gfe dag|
fef fdf|gag c2 e|gba gfe|1 dce dag:|2 dce dAG||

